icons/guarantees-4.svg

<svg width="85" height="85" viewBox="0 0 85 85" fill="none" xmlns="http://www.w3.org/2000/svg">
<path opacity="0.5" fill-rule="evenodd" clip-rule="evenodd" d="M42.5 77.9167C62.0606 77.9167 77.9166 62.0606 77.9166 42.5C77.9166 22.9394 62.0606 7.08333 42.5 7.08333C22.9394 7.08333 7.08331 22.9394 7.08331 42.5C7.08331 62.0606 22.9394 77.9167 42.5 77.9167ZM42.5 56.6667C46.2572 56.6667 49.8606 55.1741 52.5173 52.5173C55.1741 49.8606 56.6666 46.2572 56.6666 42.5C56.6666 38.7428 55.1741 35.1394 52.5173 32.4826C49.8606 29.8259 46.2572 28.3333 42.5 28.3333C38.7427 28.3333 35.1394 29.8259 32.4826 32.4826C29.8259 35.1394 28.3333 38.7428 28.3333 42.5C28.3333 46.2572 29.8259 49.8606 32.4826 52.5173C35.1394 55.1741 38.7427 56.6667 42.5 56.6667Z" fill="#141414"/>
<path d="M19.4048 69.3529L34.5348 54.2194C33.058 53.2157 31.7843 51.942 30.7806 50.4652L15.6471 65.5917C16.8064 66.9375 18.0578 68.1889 19.4013 69.3458M15.6471 19.4083L30.7806 34.5383C31.7843 33.0615 33.058 31.7878 34.5348 30.7842L19.4083 15.6435C18.0625 16.8052 16.8099 18.0578 15.6506 19.4012M50.4617 30.7806L65.5917 15.6542C66.9375 16.8111 68.1889 18.0625 69.3458 19.4083L54.2229 34.5383C53.2183 33.0612 51.9433 31.7874 50.4652 30.7842M69.3494 65.5952L54.2158 50.4617C53.2122 51.9385 51.9385 53.2122 50.4617 54.2158L65.5917 69.3529C66.9399 68.1936 68.1924 66.941 69.3494 65.5952Z" fill="#141414"/>
</svg>

<svg xmlns="http://www.w3.org/2000/svg" width="85" height="85" fill="none"><path fill="#141414" fill-rule="evenodd" d="M42.5 77.917c19.56 0 35.417-15.856 35.417-35.417 0-19.56-15.856-35.417-35.417-35.417C22.94 7.083 7.083 22.94 7.083 42.5c0 19.56 15.856 35.417 35.417 35.417m0-21.25a14.166 14.166 0 1 0 0-28.333 14.166 14.166 0 0 0 0 28.333" clip-rule="evenodd" opacity=".5"/><path fill="#141414" d="m19.405 69.353 15.13-15.134a14.2 14.2 0 0 1-3.754-3.754L15.647 65.592a36 36 0 0 0 3.754 3.754m-3.754-49.938 15.134 15.13a14.2 14.2 0 0 1 3.754-3.754l-15.127-15.14a36 36 0 0 0-3.757 3.757m34.81 11.38 15.13-15.127a35 35 0 0 1 3.755 3.754l-15.123 15.13a14.2 14.2 0 0 0-3.758-3.754M69.35 65.595 54.216 50.462a14.2 14.2 0 0 1-3.754 3.754l15.13 15.137a35 35 0 0 0 3.757-3.758"/></svg>
